X:1
T:This Happy Feeling
T:This Happy feeling
T:(from "This happy feeling")
T:Jay Livingston,Ray Evans,
C:Jay Livingston, Ray Evans
Z:All Rights Reserved
L:1/8
M:3/4
K:Bb
V:1 treble 
%%MIDI program 4
V:1
 z4 DF |:"Bb" c4 _cB | D4 DF | c2 _c2 B2 | D4 DF | c2 B4 |"D7" d2 A4 |"Eb" c2"G7" G4- |"Cm" G4 CE | %9
w: I could|laugh I could|cry I could|float through the|sky What a|hap- py|hap- py|feel- ing|_ did- n't|
"Cm7" B4"F7" A^G | A4 CE |"Cm7" B2"F7" A2"C" ^G2 |"F7" A4 CE |"Cm7" B2"F7" A4 |"A" A2"A7" G4 | %15
w: know such a|glow could a-|wak- en me|so how I|love this|hap- py|
"Bb" G2 D4- | D2 z2 DF |"Bb7" d4- dc | B4- B_A |"Ab" A2"Eb" G4- | G4 ^FG | c4 BG | F4 ED | %23
w: feel- ing|_ just a|look _ a|touch _ a|whis- per|_ brought the|stars to my|eyes from a-|
"Ebm" C6- | C4"G" C^C |"Bb" D2 F2 G2 |"C" =E4 G2 |"Bb" F2 B2 d2 |"C7" c4 B2 |"Bb" d2 F4 | %30
w: bove|_ I have|wings on my|shoes! may|I nev- er|lose this|hap- py|
"Cm7" c2 B2"F7" A2 |1"Bb" B6- |"F7" B2 z2 DF :|2"Bb" B6- | B6 |] %35
w: feel- ing of|love|_ I could|love|_|

